src/icons/svg-colors/prod-1.svg

<svg width="147" height="97" viewBox="0 0 147 97" fill="none" xmlns="http://www.w3.org/2000/svg">
<path fill-rule="evenodd" clip-rule="evenodd" d="M49.8438 76.5984C49.8438 75.77 50.5153 75.0984 51.3438 75.0984H145.412C146.24 75.0984 146.912 75.77 146.912 76.5984C146.912 77.4268 146.24 78.0984 145.412 78.0984H51.3438C50.5153 78.0984 49.8438 77.4268 49.8438 76.5984Z" fill="#0BA14B"/>
<path fill-rule="evenodd" clip-rule="evenodd" d="M49.8438 95.412C49.8438 94.5836 50.5153 93.912 51.3438 93.912H145.412C146.24 93.912 146.912 94.5836 146.912 95.412C146.912 96.2405 146.24 96.912 145.412 96.912H51.3438C50.5153 96.912 49.8438 96.2405 49.8438 95.412Z" fill="#0BA14B"/>
<path fill-rule="evenodd" clip-rule="evenodd" d="M60.2047 93C64.1838 93 67.4094 89.7744 67.4094 85.7953C67.4094 81.8162 64.1838 78.5906 60.2047 78.5906C56.2257 78.5906 53 81.8162 53 85.7953C53 89.7744 56.2257 93 60.2047 93ZM60.2047 96C65.8406 96 70.4094 91.4312 70.4094 85.7953C70.4094 80.1594 65.8406 75.5906 60.2047 75.5906C54.5688 75.5906 50 80.1594 50 85.7953C50 91.4312 54.5688 96 60.2047 96Z" fill="#0BA14B"/>
<path d="M62.0944 86.1732C62.0944 87.0082 61.4176 87.6851 60.5826 87.6851C59.7477 87.6851 59.0708 87.0082 59.0708 86.1732C59.0708 85.3383 59.7477 84.6614 60.5826 84.6614C61.4176 84.6614 62.0944 85.3383 62.0944 86.1732Z" fill="#0BA14B"/>
<path fill-rule="evenodd" clip-rule="evenodd" d="M98.7562 93C102.735 93 105.961 89.7744 105.961 85.7953C105.961 81.8162 102.735 78.5906 98.7562 78.5906C94.7772 78.5906 91.5515 81.8162 91.5515 85.7953C91.5515 89.7744 94.7772 93 98.7562 93ZM98.7562 96C104.392 96 108.961 91.4312 108.961 85.7953C108.961 80.1594 104.392 75.5906 98.7562 75.5906C93.1203 75.5906 88.5515 80.1594 88.5515 85.7953C88.5515 91.4312 93.1203 96 98.7562 96Z" fill="#0BA14B"/>
<path d="M100.058 86.1732C100.058 87.0082 99.3812 87.6851 98.5462 87.6851C97.7113 87.6851 97.0344 87.0082 97.0344 86.1732C97.0344 85.3383 97.7113 84.6614 98.5462 84.6614C99.3812 84.6614 100.058 85.3383 100.058 86.1732Z" fill="#0BA14B"/>
<path fill-rule="evenodd" clip-rule="evenodd" d="M135.795 93C139.774 93 143 89.7744 143 85.7953C143 81.8162 139.774 78.5906 135.795 78.5906C131.816 78.5906 128.591 81.8162 128.591 85.7953C128.591 89.7744 131.816 93 135.795 93ZM135.795 96C141.431 96 146 91.4312 146 85.7953C146 80.1594 141.431 75.5906 135.795 75.5906C130.159 75.5906 125.591 80.1594 125.591 85.7953C125.591 91.4312 130.159 96 135.795 96Z" fill="#0BA14B"/>
<path d="M137.685 86.1732C137.685 87.0082 137.008 87.6851 136.173 87.6851C135.338 87.6851 134.661 87.0082 134.661 86.1732C134.661 85.3383 135.338 84.6614 136.173 84.6614C137.008 84.6614 137.685 85.3383 137.685 86.1732Z" fill="#0BA14B"/>
<path fill-rule="evenodd" clip-rule="evenodd" d="M76.4562 58.9606H61.3381C60.9206 58.9606 60.5822 59.2991 60.5822 59.7166V74.0788C60.5822 74.4962 60.9206 74.8347 61.3381 74.8347H76.4562C76.8737 74.8347 77.2121 74.4962 77.2121 74.0788V59.7166C77.2121 59.2991 76.8737 58.9606 76.4562 58.9606ZM61.3381 56.6929C59.6682 56.6929 58.3145 58.0467 58.3145 59.7166V74.0788C58.3145 75.7487 59.6682 77.1024 61.3381 77.1024H76.4562C78.1261 77.1024 79.4798 75.7487 79.4798 74.0788V59.7166C79.4798 58.0467 78.1261 56.6929 76.4562 56.6929H61.3381Z" fill="#0BA14B"/>
<path fill-rule="evenodd" clip-rule="evenodd" d="M77.6779 59.9303L61.5519 76.0563L59.9484 74.4528L76.0744 58.3268L77.6779 59.9303Z" fill="#0BA14B"/>
<path fill-rule="evenodd" clip-rule="evenodd" d="M76.0744 76.0563L59.9484 59.9303L61.5519 58.3268L77.6779 74.4528L76.0744 76.0563Z" fill="#0BA14B"/>
<path fill-rule="evenodd" clip-rule="evenodd" d="M135.418 39.3071H121.055C120.638 39.3071 120.299 39.6455 120.299 40.063V54.4252C120.299 54.8427 120.638 55.1811 121.055 55.1811H135.418C135.835 55.1811 136.173 54.8427 136.173 54.4252V40.063C136.173 39.6455 135.835 39.3071 135.418 39.3071ZM121.055 37.0394C119.385 37.0394 118.032 38.3931 118.032 40.063V54.4252C118.032 56.0951 119.385 57.4488 121.055 57.4488H135.418C137.087 57.4488 138.441 56.0951 138.441 54.4252V40.063C138.441 38.3931 137.087 37.0394 135.418 37.0394H121.055Z" fill="#0BA14B"/>
<path fill-rule="evenodd" clip-rule="evenodd" d="M136.807 39.7729L120.681 55.8989L119.078 54.2953L135.204 38.1694L136.807 39.7729Z" fill="#0BA14B"/>
<path fill-rule="evenodd" clip-rule="evenodd" d="M135.204 55.8989L119.078 39.7729L120.681 38.1694L136.807 54.2953L135.204 55.8989Z" fill="#0BA14B"/>
<path fill-rule="evenodd" clip-rule="evenodd" d="M140.756 3H56C54.3737 3 53 4.35971 53 6.04724C53 7.73478 54.3737 9.09449 56 9.09449H140.756C142.382 9.09449 143.756 7.73478 143.756 6.04724C143.756 4.35971 142.382 3 140.756 3ZM56 0C52.6863 0 50 2.73354 50 6.04724C50 9.36095 52.6863 12.0945 56 12.0945H140.756C144.07 12.0945 146.756 9.36095 146.756 6.04724C146.756 2.73354 144.07 0 140.756 0H56Z" fill="#0BA14B"/>
<path d="M60.7507 2C60.7507 0.895432 61.6462 0 62.7507 0H74.8767C75.9813 0 76.8767 0.895431 76.8767 2V12.7821C76.8767 13.8867 75.9813 14.7821 74.8767 14.7821H62.7507C61.6462 14.7821 60.7507 13.8867 60.7507 12.7821V2Z" fill="#F9F9F9"/>
<path fill-rule="evenodd" clip-rule="evenodd" d="M63.7507 3V11.7821H73.8767V3H63.7507ZM62.7507 0C61.6462 0 60.7507 0.895432 60.7507 2V12.7821C60.7507 13.8867 61.6462 14.7821 62.7507 14.7821H74.8767C75.9813 14.7821 76.8767 13.8867 76.8767 12.7821V2C76.8767 0.895431 75.9813 0 74.8767 0H62.7507Z" fill="#0BA14B"/>
<path d="M70.4933 6.88712C70.4933 7.72207 69.8165 8.39893 68.9815 8.39893C68.1466 8.39893 67.4697 7.72207 67.4697 6.88712C67.4697 6.05217 68.1466 5.37531 68.9815 5.37531C69.8165 5.37531 70.4933 6.05217 70.4933 6.88712Z" fill="#0BA14B"/>
<path d="M119.879 2C119.879 0.895432 120.775 0 121.879 0H134.005C135.11 0 136.005 0.895431 136.005 2V12.7821C136.005 13.8867 135.11 14.7821 134.005 14.7821H121.879C120.775 14.7821 119.879 13.8867 119.879 12.7821V2Z" fill="#F9F9F9"/>
<path fill-rule="evenodd" clip-rule="evenodd" d="M122.879 3V11.7821H133.005V3H122.879ZM121.879 0C120.775 0 119.879 0.895432 119.879 2V12.7821C119.879 13.8867 120.775 14.7821 121.879 14.7821H134.005C135.11 14.7821 136.005 13.8867 136.005 12.7821V2C136.005 0.895431 135.11 0 134.005 0H121.879Z" fill="#0BA14B"/>
<path d="M129.622 6.88712C129.622 7.72207 128.945 8.39893 128.11 8.39893C127.275 8.39893 126.598 7.72207 126.598 6.88712C126.598 6.05217 127.275 5.37531 128.11 5.37531C128.945 5.37531 129.622 6.05217 129.622 6.88712Z" fill="#0BA14B"/>
<path fill-rule="evenodd" clip-rule="evenodd" d="M67.6797 24.189V13.4384H69.9474V24.189H67.6797Z" fill="#0BA14B"/>
<path fill-rule="evenodd" clip-rule="evenodd" d="M68.8125 22.7561L83.4068 34.0335C84.2404 34.6776 84.7285 35.6717 84.7285 36.7251V49.7218C84.7285 50.348 84.2209 50.8557 83.5946 50.8557C82.9684 50.8557 82.4608 50.348 82.4608 49.7218V36.7251C82.4608 36.374 82.2981 36.0426 82.0202 35.8279L68.8125 25.6219L55.6048 35.8279C55.3269 36.0426 55.1642 36.374 55.1642 36.7251V49.7218C55.1642 50.348 54.6566 50.8557 54.0303 50.8557C53.4041 50.8557 52.8965 50.348 52.8965 49.7218V36.7251C52.8965 35.6717 53.3846 34.6776 54.2182 34.0335L68.8125 22.7561Z" fill="#0BA14B"/>
<path fill-rule="evenodd" clip-rule="evenodd" d="M126.811 24.189V13.4384H129.078V24.189H126.811Z" fill="#0BA14B"/>
<path fill-rule="evenodd" clip-rule="evenodd" d="M127.943 22.7561L142.538 34.0335C143.371 34.6776 143.859 35.6717 143.859 36.7251V49.7218C143.859 50.348 143.352 50.8557 142.726 50.8557C142.099 50.8557 141.592 50.348 141.592 49.7218V36.7251C141.592 36.374 141.429 36.0426 141.151 35.8279L127.943 25.6219L114.736 35.8279C114.458 36.0426 114.295 36.374 114.295 36.7251V49.7218C114.295 50.348 113.787 50.8557 113.161 50.8557C112.535 50.8557 112.027 50.348 112.027 49.7218V36.7251C112.027 35.6717 112.515 34.6776 113.349 34.0335L127.943 22.7561Z" fill="#0BA14B"/>
<path d="M22.6406 51.75H12.7617V14.5195C9.15234 17.8945 4.89844 20.3906 0 22.0078V13.043C2.57812 12.1992 5.37891 10.6055 8.40234 8.26172C11.4258 5.89453 13.5 3.14062 14.625 0H22.6406V51.75Z" fill="#0BA14B"/>
</svg>

<svg width="147" height="97" viewBox="0 0 147 97" fill="none" xmlns="http://www.w3.org/2000/svg">
    <path fill-rule="evenodd" clip-rule="evenodd" d="M49.844 76.598a1.5 1.5 0 0 1 1.5-1.5h94.068a1.5 1.5 0 0 1 0 3H51.344a1.5 1.5 0 0 1-1.5-1.5z" fill="#0BA14B"/>
    <path fill-rule="evenodd" clip-rule="evenodd" d="M49.844 95.412a1.5 1.5 0 0 1 1.5-1.5h94.068a1.5 1.5 0 0 1 0 3H51.344a1.5 1.5 0 0 1-1.5-1.5z" fill="#0BA14B"/>
    <path fill-rule="evenodd" clip-rule="evenodd" d="M60.205 93a7.205 7.205 0 1 0 0-14.41 7.205 7.205 0 0 0 0 14.41zm0 3c5.636 0 10.204-4.569 10.204-10.205s-4.568-10.204-10.204-10.204C54.569 75.59 50 80.159 50 85.795 50 91.431 54.569 96 60.205 96z" fill="#0BA14B"/>
    <path d="M62.094 86.173a1.512 1.512 0 1 1-3.023 0 1.512 1.512 0 0 1 3.023 0z" fill="#0BA14B"/>
    <path fill-rule="evenodd" clip-rule="evenodd" d="M98.756 93a7.205 7.205 0 1 0 0-14.41 7.205 7.205 0 0 0 0 14.41zm0 3c5.636 0 10.205-4.569 10.205-10.205s-4.569-10.204-10.205-10.204-10.204 4.568-10.204 10.204C88.552 91.431 93.12 96 98.756 96z" fill="#0BA14B"/>
    <path d="M100.058 86.173a1.512 1.512 0 1 1-3.024 0 1.512 1.512 0 0 1 3.024 0z" fill="#0BA14B"/>
    <path fill-rule="evenodd" clip-rule="evenodd" d="M135.795 93a7.205 7.205 0 1 0 0-14.41 7.205 7.205 0 0 0 0 14.41zm0 3C141.431 96 146 91.431 146 85.795s-4.569-10.204-10.205-10.204-10.204 4.568-10.204 10.204c0 5.636 4.568 10.205 10.204 10.205z" fill="#0BA14B"/>
    <path d="M137.685 86.173a1.512 1.512 0 1 1-3.024 0 1.512 1.512 0 0 1 3.024 0z" fill="#0BA14B"/>
    <path fill-rule="evenodd" clip-rule="evenodd" d="M76.456 58.96H61.338a.756.756 0 0 0-.756.757v14.362c0 .417.339.756.756.756h15.118a.756.756 0 0 0 .756-.756V59.717a.756.756 0 0 0-.756-.756zm-15.118-2.267a3.024 3.024 0 0 0-3.023 3.024v14.362a3.024 3.024 0 0 0 3.023 3.023h15.118a3.024 3.024 0 0 0 3.024-3.023V59.717a3.024 3.024 0 0 0-3.024-3.024H61.338z" fill="#0BA14B"/>
    <path fill-rule="evenodd" clip-rule="evenodd" d="M77.678 59.93L61.552 76.056l-1.604-1.603 16.126-16.126 1.604 1.603z" fill="#0BA14B"/>
    <path fill-rule="evenodd" clip-rule="evenodd" d="M76.074 76.056L59.948 59.93l1.604-1.603 16.126 16.126-1.604 1.603z" fill="#0BA14B"/>
    <path fill-rule="evenodd" clip-rule="evenodd" d="M135.418 39.307h-14.363a.756.756 0 0 0-.756.756v14.362c0 .418.339.756.756.756h14.363a.755.755 0 0 0 .755-.756V40.063a.755.755 0 0 0-.755-.756zm-14.363-2.268a3.023 3.023 0 0 0-3.023 3.024v14.362a3.023 3.023 0 0 0 3.023 3.024h14.363a3.024 3.024 0 0 0 3.023-3.024V40.063a3.024 3.024 0 0 0-3.023-3.024h-14.363z" fill="#0BA14B"/>
    <path fill-rule="evenodd" clip-rule="evenodd" d="M136.807 39.773l-16.126 16.126-1.603-1.604 16.126-16.126 1.603 1.604z" fill="#0BA14B"/>
    <path fill-rule="evenodd" clip-rule="evenodd" d="M135.204 55.899l-16.126-16.126 1.603-1.604 16.126 16.126-1.603 1.604z" fill="#0BA14B"/>
    <path fill-rule="evenodd" clip-rule="evenodd" d="M140.756 3H56c-1.626 0-3 1.36-3 3.047 0 1.688 1.374 3.047 3 3.047h84.756c1.626 0 3-1.36 3-3.047S142.382 3 140.756 3zM56 0c-3.314 0-6 2.734-6 6.047 0 3.314 2.686 6.048 6 6.048h84.756c3.314 0 6-2.734 6-6.048 0-3.313-2.686-6.047-6-6.047H56z" fill="#0BA14B"/>
    <path d="M60.75 2a2 2 0 0 1 2-2h12.127a2 2 0 0 1 2 2v10.782a2 2 0 0 1-2 2H62.75a2 2 0 0 1-2-2V2z" fill="#F9F9F9"/>
    <path fill-rule="evenodd" clip-rule="evenodd" d="M63.75 3v8.782h10.127V3H63.75zm-1-3a2 2 0 0 0-2 2v10.782a2 2 0 0 0 2 2h12.127a2 2 0 0 0 2-2V2a2 2 0 0 0-2-2H62.75z" fill="#0BA14B"/>
    <path d="M70.493 6.887a1.512 1.512 0 1 1-3.023 0 1.512 1.512 0 0 1 3.023 0z" fill="#0BA14B"/>
    <path d="M119.879 2a2 2 0 0 1 2-2h12.126a2 2 0 0 1 2 2v10.782a2 2 0 0 1-2 2h-12.126a2 2 0 0 1-2-2V2z" fill="#F9F9F9"/>
    <path fill-rule="evenodd" clip-rule="evenodd" d="M122.879 3v8.782h10.126V3h-10.126zm-1-3a2 2 0 0 0-2 2v10.782a2 2 0 0 0 2 2h12.126a2 2 0 0 0 2-2V2a2 2 0 0 0-2-2h-12.126z" fill="#0BA14B"/>
    <path d="M129.622 6.887a1.512 1.512 0 1 1-3.024 0 1.512 1.512 0 0 1 3.024 0z" fill="#0BA14B"/>
    <path fill-rule="evenodd" clip-rule="evenodd" d="M67.68 24.189v-10.75h2.267v10.75H67.68z" fill="#0BA14B"/>
    <path fill-rule="evenodd" clip-rule="evenodd" d="M68.813 22.756l14.594 11.277a3.402 3.402 0 0 1 1.322 2.692v12.997a1.134 1.134 0 1 1-2.268 0V36.725c0-.351-.163-.682-.44-.897L68.811 25.622 55.605 35.828c-.278.215-.44.546-.44.897v12.997a1.134 1.134 0 1 1-2.268 0V36.725c0-1.053.488-2.047 1.321-2.692l14.594-11.277z" fill="#0BA14B"/>
    <path fill-rule="evenodd" clip-rule="evenodd" d="M126.811 24.189v-10.75h2.267v10.75h-2.267z" fill="#0BA14B"/>
    <path fill-rule="evenodd" clip-rule="evenodd" d="M127.943 22.756l14.595 11.277a3.403 3.403 0 0 1 1.321 2.692v12.997a1.133 1.133 0 1 1-2.267 0V36.725c0-.351-.163-.682-.441-.897l-13.208-10.206-13.207 10.206a1.134 1.134 0 0 0-.441.897v12.997a1.134 1.134 0 0 1-2.268 0V36.725a3.4 3.4 0 0 1 1.322-2.692l14.594-11.277z" fill="#0BA14B"/>
    <path d="M22.64 51.75h-9.878V14.52C9.152 17.895 4.898 20.39 0 22.008v-8.965c2.578-.844 5.379-2.438 8.402-4.781C11.426 5.895 13.5 3.14 14.625 0h8.016v51.75z" fill="#0BA14B"/>
</svg>
